X:1
T:Title
%%score { ( 1 3 4 ) | ( 2 5 6 ) }
L:1/8
M:4/4
K:D
V:1 treble nm="Grand Piano"
V:3 treble 
V:4 treble 
V:2 bass 
V:5 bass 
V:6 bass 
V:1
 z4 z2[Q:1/4=100] D>E | F>F F>E D2 D>F | [FA]>[FA] [FA]>[GB] [FA]4 | [Fd]3 A z4 | %4
 [A,CE]4 [A,CA]2 [A,DF]>[A,EG] | [FA]>[FA] [FA]>[GB] [FA]2 [DF]>[FA] | B>B G>B [FA]4 | [Fd]3 A z4 | %8
[M:3/4][K:bass] [G,CE]4 [F,D]2 |[M:1/4][K:treble] [A,FA]>[DGB] |[M:4/4] [FA]4 z4 | [Fd]4 [FA]2 z2 | %12
 B>B B>B [^GB]>[Gd] [Ac]>[Bd] | e6 z2 | [Fd]>[Fd] [Fd]>[GB] [FA]2 [DF]>[FA] | %15
[M:9/8] B>B[Gc]- [Gc]/[Gc]/ [Fd]2- [Fd]D>E | %16
[M:4/4] F>[FA] [GB]>[A,FA] [A,DF]>[K:bass][F,D] [G,CE]>[G,CE] |[M:3/4] D2- [B,D-]>[B,D-] [A,D]2 |] %18
V:2
 z4 z2 [D,F,]>[D,G,D] | [D,A,D]>[D,A,D] [D,A,D]>[D,G,] [D,F,]2 [D,F,]>[D,A,D] | %2
 [D,D]>[D,D] [D,D]>[D,D] [D,D]4 | z2 z F z4 | A,,4 A,,2 D,>D, | %5
 [D,D]>[D,D] [D,D]>[D,D] [D,D]2 [D,A,]>[D,D] | [G,DG]>[G,DG] [G,B,]>[G,DG][K:bass] [D,D]4 | %7
 z2 z F z4 |[M:3/4] A,,4 D,2 |[M:1/4] D,>D, |[M:4/4] D,>F, A,>F, [D,D]>[D,D] [D,D]>[D,D] | %11
 [D,D]>F, A,>F, D,>D, [D,A,D]>[D,D] | [G,DG]>[G,DG] [G,DG]>[G,DG][K:bass] [E,E]>[E,E] [E,E]>[E,E] | %13
 [CA]>C C>C C2 [A,CG]>[A,CG] | [D,D]>[D,D] [D,D]>[D,D] [D,D]2 [D,A,]>[D,D] | %15
[M:9/8][K:treble] [G,G]>[G,G][K:bass][E,A,]- [E,A,]/[E,A,]/ [D,A,]2- [D,A,][D,F,]>[D,G,D] | %16
[M:4/4] [D,A,D]>[D,D] [D,D]>D, A,,>A,, A,,>A,, |[M:3/4] z2 G,>G, F,2 |] %18
V:3
 x8 | x8 | x8 | z z/ D/ z z/ D/ [DGB]>[DFA] [A,D]>[A,DF] | x8 | x8 | x8 | %7
 z z/ D/ z z/ D/ [DGB]>[DFA] [A,D]>[A,DF] |[M:3/4][K:bass] x6 |[M:1/4][K:treble] x2 | %10
[M:4/4] D>D D>D F2 [Fd]>[Ge] | z z/ D/ D>D D>A, F>[FA] | x8 | z z/ A/ A>A A2 A>A | x8 |[M:9/8] x9 | %16
[M:4/4] x11/2[K:bass] x5/2 |[M:3/4] F,2 z2 z2 |] %18
V:4
 x8 | x8 | x8 | z2 D2 z4 | x8 | x8 | x8 | z2 D2 z4 |[M:3/4][K:bass] x6 |[M:1/4][K:treble] x2 | %10
[M:4/4] x8 | x8 | x8 | x8 | x8 |[M:9/8] x9 |[M:4/4] x11/2[K:bass] x5/2 |[M:3/4] x6 |] %18
V:5
 x8 | x8 | x8 | z2 A,2 z4 | x8 | x8 | x4[K:bass] x4 | z2 A,2 z4 |[M:3/4] x6 |[M:1/4] x2 | %10
[M:4/4] x8 | x8 | x4[K:bass] x4 | A,6 z2 | x8 |[M:9/8][K:treble] x2[K:bass] x7 |[M:4/4] x8 | %17
[M:3/4] D,6 |] %18
V:6
 x8 | x8 | x8 | [D,D]>F, z z/ F,/ D,>D, F,>D, | x8 | x8 | x4[K:bass] x4 | %7
 [D,D]>F, z z/ F,/ D,>D, F,>D, |[M:3/4] x6 |[M:1/4] x2 |[M:4/4] x8 | x8 | x4[K:bass] x4 | x8 | x8 | %15
[M:9/8][K:treble] x2[K:bass] x7 |[M:4/4] x8 |[M:3/4] x6 |] %18

